z-union/img/icons/tab-icons/tab-icon-1.svg

<svg width="54" height="52" viewBox="0 0 54 52" fill="none" xmlns="http://www.w3.org/2000/svg">
<path d="M49.1061 24.7295H4.44916V26.9009H49.1061V24.7295Z" fill="#232322"/>
<path d="M27.8632 4.44922H25.6918V47.1806H27.8632V4.44922Z" fill="#232322"/>
<path d="M49.1061 3.3623H4.44916V5.53369H49.1061V3.3623Z" fill="#232322"/>
<path d="M49.1061 46.5869H4.44916V48.7583H49.1061V46.5869Z" fill="#232322"/>
<path d="M50.2122 47.181H48.0408V6.98969L27.5559 26.5937C27.1258 27.0034 26.4702 27.0034 26.0606 26.5937L5.57571 6.98969V47.181H3.36334V4.44959C3.36334 4.01941 3.62965 3.63019 4.01886 3.44583C4.40807 3.28195 4.87922 3.3639 5.18649 3.65069L26.7775 24.3199L48.3685 3.67116C48.6758 3.36389 49.147 3.28197 49.5362 3.46633C49.9459 3.63021 50.1917 4.03989 50.1917 4.47007V47.181H50.2122Z" fill="#7BBFE2"/>
<path d="M4.44924 7.80887C6.30465 7.80887 7.80875 6.30477 7.80875 4.44936C7.80875 2.59395 6.30465 1.08984 4.44924 1.08984C2.59383 1.08984 1.08972 2.59395 1.08972 4.44936C1.08972 6.30477 2.59383 7.80887 4.44924 7.80887Z" fill="#151514"/>
<path d="M4.44911 8.89432C4.38765 8.89432 4.34668 8.89432 4.28523 8.89432C3.09711 8.85335 1.99093 8.34122 1.19202 7.48086C0.372623 6.6205 -0.0370738 5.47335 0.00389588 4.28523C0.0858352 1.82705 2.17529 -0.0985201 4.61299 0.00390414C7.07117 0.0858435 8.99674 2.15481 8.89432 4.61299C8.85335 5.80112 8.34123 6.90729 7.48086 7.70619C6.66147 8.48462 5.59626 8.89432 4.44911 8.89432ZM4.44911 2.17529C3.2405 2.17529 2.21626 3.13806 2.17529 4.36715C2.1548 4.9817 2.35965 5.55528 2.78983 6.00595C3.19953 6.45661 3.77311 6.70245 4.36717 6.72293C5.0022 6.74342 5.55529 6.53856 6.00595 6.10838C6.45662 5.6782 6.70244 5.1251 6.72292 4.53104C6.76389 3.28146 5.78062 2.21626 4.53105 2.17529C4.51056 2.17529 4.49008 2.17529 4.44911 2.17529Z" fill="#7BBFE2"/>
<path d="M4.44924 50.5384C6.30465 50.5384 7.80875 49.0343 7.80875 47.1788C7.80875 45.3234 6.30465 43.8193 4.44924 43.8193C2.59383 43.8193 1.08972 45.3234 1.08972 47.1788C1.08972 49.0343 2.59383 50.5384 4.44924 50.5384Z" fill="#151514"/>
<path d="M4.44911 51.6244C4.38765 51.6244 4.34668 51.6244 4.28523 51.6244C3.09711 51.5834 1.99093 51.0713 1.19202 50.2109C0.372623 49.3301 -0.0370738 48.2034 0.00389588 47.0153C0.0858353 44.5571 2.19577 42.6521 4.61299 42.734C5.80111 42.775 6.90729 43.2871 7.7062 44.1474C8.52559 45.0283 8.93529 46.155 8.89432 47.3431C8.85335 48.5312 8.34123 49.6374 7.48086 50.4363C6.66147 51.2147 5.57577 51.6244 4.44911 51.6244ZM4.44911 44.9054C3.22002 44.9054 2.21626 45.8682 2.17529 47.0972C2.13432 48.3468 3.11759 49.412 4.36717 49.453C5.0022 49.494 5.55529 49.2686 6.00596 48.8385C6.45662 48.4288 6.70244 47.8552 6.72293 47.2611C6.74341 46.6671 6.53856 46.073 6.10838 45.6223C5.69868 45.1717 5.12511 44.9259 4.53105 44.9054C4.51056 44.9054 4.49008 44.9054 4.44911 44.9054Z" fill="#7BBFE2"/>
<path d="M49.1264 7.80887C50.9818 7.80887 52.4859 6.30477 52.4859 4.44936C52.4859 2.59395 50.9818 1.08984 49.1264 1.08984C47.271 1.08984 45.7668 2.59395 45.7668 4.44936C45.7668 6.30477 47.271 7.80887 49.1264 7.80887Z" fill="#151514"/>
<path d="M49.1265 8.89432C49.0651 8.89432 49.0241 8.89432 48.9627 8.89432C47.7745 8.85335 46.6684 8.34122 45.8694 7.48086C45.0501 6.6205 44.6404 5.47335 44.6813 4.28523C44.7633 1.82705 46.8732 -0.0985201 49.2904 0.00390414C50.4785 0.0448738 51.5847 0.557 52.3836 1.41736C53.203 2.29821 53.6127 3.42487 53.5717 4.61299C53.4693 7.00972 51.5028 8.89432 49.1265 8.89432ZM49.1265 2.17529C47.9179 2.17529 46.8937 3.13806 46.8527 4.36715C46.8322 4.9817 47.0371 5.55528 47.4673 6.00595C47.877 6.45661 48.4505 6.70245 49.0446 6.72293C50.2942 6.7639 51.3594 5.78061 51.4004 4.53104C51.4413 3.28146 50.4581 2.21626 49.2085 2.17529C49.1675 2.17529 49.147 2.17529 49.1265 2.17529Z" fill="#7BBFE2"/>
<path d="M49.1264 29.2864C50.9818 29.2864 52.4859 27.7823 52.4859 25.9269C52.4859 24.0715 50.9818 22.5674 49.1264 22.5674C47.271 22.5674 45.7668 24.0715 45.7668 25.9269C45.7668 27.7823 47.271 29.2864 49.1264 29.2864Z" fill="#151514"/>
<path d="M49.1265 30.3728C49.0651 30.3728 49.0241 30.3728 48.9627 30.3728C47.7745 30.3319 46.6684 29.8197 45.8694 28.9594C45.0501 28.099 44.6404 26.9519 44.6813 25.7637C44.7633 23.3056 46.8732 21.38 49.2904 21.4824C50.4785 21.5234 51.5847 22.0355 52.3836 22.8959C53.203 23.7767 53.6127 24.9034 53.5717 26.0915C53.4693 28.4882 51.5028 30.3728 49.1265 30.3728ZM49.1265 23.6538C47.9179 23.6538 46.8937 24.6166 46.8527 25.8457C46.8322 26.4602 47.0371 27.0338 47.4673 27.4845C47.877 27.9351 48.4505 28.181 49.0446 28.2014C50.2942 28.2424 51.3594 27.2591 51.4004 26.0096C51.4413 24.76 50.4581 23.6948 49.2085 23.6538C49.1675 23.6538 49.147 23.6538 49.1265 23.6538Z" fill="#7BBFE2"/>
<path d="M4.44801 29.2864C6.30342 29.2864 7.80753 27.7823 7.80753 25.9269C7.80753 24.0715 6.30342 22.5674 4.44801 22.5674C2.59261 22.5674 1.0885 24.0715 1.0885 25.9269C1.0885 27.7823 2.59261 29.2864 4.44801 29.2864Z" fill="#151514"/>
<path d="M4.44801 30.3728C4.38655 30.3728 4.34558 30.3728 4.28413 30.3728C3.09601 30.3319 1.98983 29.8197 1.19092 28.9594C0.371524 28.099 -0.0381724 26.9519 0.00279725 25.7637C0.0847366 23.3056 2.19468 21.38 4.61189 21.4824C5.80001 21.5234 6.90619 22.0355 7.7051 22.8959C8.52449 23.7767 8.93419 24.9034 8.89322 26.0915C8.7908 28.4882 6.82425 30.3728 4.44801 30.3728ZM4.44801 23.6538C3.2394 23.6538 2.21516 24.6166 2.17419 25.8457C2.15371 26.4602 2.35856 27.0338 2.78874 27.4845C3.19843 27.9351 3.77201 28.181 4.36607 28.2014C5.61565 28.2424 6.68086 27.2591 6.72183 26.0096C6.7628 24.76 5.77953 23.6948 4.52995 23.6538C4.48898 23.6538 4.46849 23.6538 4.44801 23.6538Z" fill="#7BBFE2"/>
<path d="M26.7775 29.1761C28.633 29.1761 30.1371 27.672 30.1371 25.8165C30.1371 23.9611 28.633 22.457 26.7775 22.457C24.9221 22.457 23.418 23.9611 23.418 25.8165C23.418 27.672 24.9221 29.1761 26.7775 29.1761Z" fill="#151514"/>
<path d="M26.798 30.2614C26.7365 30.2614 26.6956 30.2614 26.6341 30.2614C25.446 30.2204 24.3398 29.7083 23.5409 28.8479C22.7215 27.9671 22.3118 26.8404 22.3528 25.6523C22.3937 24.4642 22.9059 23.358 23.7662 22.5591C24.6471 21.7397 25.7942 21.33 26.9619 21.371C29.42 21.4529 31.3456 23.5219 31.2432 25.9801C31.2022 27.1682 30.6901 28.2744 29.8297 29.0733C28.9899 29.8517 27.9247 30.2614 26.798 30.2614ZM26.7775 23.5424C25.5689 23.5424 24.5447 24.5052 24.5037 25.7342C24.4832 26.3488 24.688 26.9224 25.1182 27.373C25.5279 27.8237 26.1015 28.0695 26.6956 28.09C27.2896 28.1105 27.8837 27.9056 28.3343 27.4754C28.785 27.0657 29.0308 26.4922 29.0513 25.8981C29.0923 24.6486 28.109 23.5833 26.8594 23.5424C26.839 23.5424 26.8185 23.5424 26.7775 23.5424Z" fill="#7BBFE2"/>
<path d="M49.1264 50.5384C50.9818 50.5384 52.4859 49.0343 52.4859 47.1788C52.4859 45.3234 50.9818 43.8193 49.1264 43.8193C47.271 43.8193 45.7669 45.3234 45.7669 47.1788C45.7669 49.0343 47.271 50.5384 49.1264 50.5384Z" fill="#151514"/>
<path d="M49.1265 51.6247C49.065 51.6247 49.0241 51.6247 48.9626 51.6247C46.5044 51.5427 44.5788 49.4738 44.6813 47.0156C44.7222 45.8274 45.2344 44.7213 46.0947 43.9224C46.9756 43.103 48.1227 42.6933 49.2904 42.7342C50.4785 42.7752 51.5847 43.2873 52.3836 44.1477C53.203 45.0285 53.6127 46.1552 53.5717 47.3433C53.4693 49.7401 51.5027 51.6247 49.1265 51.6247ZM49.106 44.9056C48.5324 44.9056 47.9793 45.1105 47.5491 45.5202C47.0985 45.9299 46.8527 46.5034 46.8322 47.0975C46.7912 48.3471 47.7745 49.4123 49.0241 49.4533C50.3146 49.4942 51.3388 48.511 51.3798 47.2614C51.4003 46.6468 51.1955 46.0732 50.7653 45.6226C50.3556 45.1719 49.782 44.9261 49.1879 44.9056C49.1675 44.9056 49.147 44.9056 49.106 44.9056Z" fill="#7BBFE2"/>
</svg>

<svg width="54" height="52" fill="none" xmlns="http://www.w3.org/2000/svg"><path d="M49.106 24.73H4.45v2.17h44.657v-2.17z" fill="#232322"/><path d="M27.863 4.45h-2.171v42.73h2.171V4.45z" fill="#232322"/><path d="M49.106 3.362H4.45v2.172h44.657V3.362zm0 43.225H4.45v2.171h44.657v-2.171z" fill="#232322"/><path d="M50.212 47.181h-2.171V6.99L27.556 26.594c-.43.41-1.086.41-1.495 0L5.576 6.99v40.19H3.363V4.45c0-.43.267-.82.656-1.004.39-.164.86-.082 1.167.205L26.777 24.32 48.368 3.67a1.035 1.035 0 011.168-.205c.41.164.656.574.656 1.004V47.18h.02z" fill="#7BBFE2"/><path d="M4.45 7.809a3.36 3.36 0 100-6.72 3.36 3.36 0 000 6.72z" fill="#151514"/><path d="M4.45 8.894h-.165a4.42 4.42 0 01-3.093-1.413C.372 6.62-.038 5.473.004 4.285.086 1.827 2.175-.099 4.613.004a4.431 4.431 0 014.281 4.609 4.42 4.42 0 01-1.413 3.093c-.82.779-1.885 1.188-3.032 1.188zm0-6.719a2.28 2.28 0 00-2.275 2.192 2.22 2.22 0 00.615 1.639c.41.45.983.696 1.577.717a2.19 2.19 0 001.639-.615c.45-.43.696-.983.717-1.577.04-1.25-.942-2.315-2.192-2.356h-.082z" fill="#7BBFE2"/><path d="M4.45 50.538a3.36 3.36 0 100-6.719 3.36 3.36 0 000 6.72z" fill="#151514"/><path d="M4.45 51.624h-.165a4.42 4.42 0 01-3.093-1.413 4.413 4.413 0 01-1.188-3.196c.082-2.458 2.192-4.363 4.609-4.281a4.42 4.42 0 013.093 1.413 4.407 4.407 0 011.188 3.196 4.42 4.42 0 01-1.413 3.093 4.38 4.38 0 01-3.032 1.188zm0-6.719c-1.23 0-2.234.963-2.275 2.192-.04 1.25.943 2.315 2.192 2.356.635.041 1.188-.184 1.639-.614.45-.41.696-.984.717-1.578a2.25 2.25 0 00-.615-1.639 2.227 2.227 0 00-1.577-.717h-.082z" fill="#7BBFE2"/><path d="M49.126 7.809a3.36 3.36 0 100-6.72 3.36 3.36 0 000 6.72z" fill="#151514"/><path d="M49.127 8.894h-.164a4.42 4.42 0 01-3.094-1.413c-.819-.86-1.229-2.008-1.188-3.196.082-2.458 2.192-4.384 4.61-4.281a4.42 4.42 0 013.093 1.413 4.415 4.415 0 011.188 3.196c-.103 2.397-2.07 4.281-4.446 4.281zm0-6.719a2.28 2.28 0 00-2.274 2.192 2.22 2.22 0 00.614 1.639c.41.45.983.696 1.578.717 1.25.04 2.314-.942 2.355-2.192.041-1.25-.942-2.315-2.191-2.356h-.083z" fill="#7BBFE2"/><path d="M49.126 29.286a3.36 3.36 0 100-6.719 3.36 3.36 0 000 6.72z" fill="#151514"/><path d="M49.127 30.373h-.164a4.42 4.42 0 01-3.094-1.414c-.819-.86-1.229-2.007-1.188-3.195.082-2.458 2.192-4.384 4.61-4.282a4.42 4.42 0 013.093 1.414 4.411 4.411 0 011.188 3.195c-.103 2.397-2.07 4.282-4.446 4.282zm0-6.72a2.28 2.28 0 00-2.274 2.193 2.22 2.22 0 00.614 1.639c.41.45.983.696 1.578.716 1.25.041 2.314-.942 2.355-2.191.041-1.25-.942-2.315-2.191-2.356h-.083z" fill="#7BBFE2"/><path d="M4.448 29.286a3.36 3.36 0 100-6.719 3.36 3.36 0 000 6.72z" fill="#151514"/><path d="M4.448 30.373h-.164a4.42 4.42 0 01-3.093-1.414C.37 28.1-.04 26.952.003 25.764c.082-2.458 2.192-4.384 4.609-4.282a4.42 4.42 0 013.093 1.414c.82.88 1.23 2.007 1.188 3.195-.102 2.397-2.069 4.282-4.445 4.282zm0-6.72a2.28 2.28 0 00-2.274 2.193 2.22 2.22 0 00.615 1.639c.41.45.983.696 1.577.716 1.25.041 2.315-.942 2.356-2.191.04-1.25-.942-2.315-2.192-2.356h-.082z" fill="#7BBFE2"/><path d="M26.777 29.176a3.36 3.36 0 100-6.719 3.36 3.36 0 000 6.72z" fill="#151514"/><path d="M26.798 30.261h-.164a4.42 4.42 0 01-3.093-1.413 4.412 4.412 0 01-1.188-3.196 4.445 4.445 0 014.61-4.281 4.431 4.431 0 014.28 4.61 4.42 4.42 0 01-1.413 3.092 4.417 4.417 0 01-3.032 1.188zm-.02-6.719a2.28 2.28 0 00-2.274 2.192c-.02.615.184 1.188.614 1.639.41.45.984.697 1.578.717a2.25 2.25 0 001.638-.615c.451-.41.697-.983.717-1.577.041-1.25-.942-2.315-2.192-2.356h-.082z" fill="#7BBFE2"/><path d="M49.126 50.538a3.36 3.36 0 100-6.719 3.36 3.36 0 000 6.72z" fill="#151514"/><path d="M49.127 51.625h-.164a4.431 4.431 0 01-4.282-4.61 4.445 4.445 0 014.61-4.281 4.42 4.42 0 013.093 1.414 4.411 4.411 0 011.188 3.195c-.103 2.397-2.07 4.282-4.446 4.282zm-.021-6.72c-.574 0-1.127.206-1.557.615-.45.41-.696.983-.717 1.577-.04 1.25.943 2.315 2.192 2.356a2.258 2.258 0 002.356-2.192 2.219 2.219 0 00-.615-1.638 2.226 2.226 0 00-1.577-.717h-.082z" fill="#7BBFE2"/></svg>
